X:75
T: Tom Ban's
S: M.Russell
Z: B.Black
R: reel
M: 4/4
L: 1/8
K: G
e |d2 d2 BGBd |egfa g3 e |d2 de dBGA |BAAB A3 B |
d2 d2 BGBd | egfa g2 fg | a2 ag fdef | gbaf g3 :|
e | dg (3gfg dg (3gfg | dg (3gfg agfg | a2 ab agfg |\
agfe dcBc |
dg (3gfg dg (3gfg |dg (3gfg agfg |a2 ag edef |\
gbaf g3 :|
